Icons/rename_me_quickoffice.svg

<svg viewBox="0 0 48 48" xmlns:xlink="http://www.w3.org/1999/xlink">
 <defs>
  <linearGradient id="0">
   <stop stop-opacity="0"/>
   <stop offset="1"/>
  </linearGradient>
  <linearGradient xlink:href="#0" id="1" gradientUnits="userSpaceOnUse" gradientTransform="translate(4e-7,-48)" y1="47" x2="0" y2="1"/>
  <clipPath id="2">
   <g transform="translate(0,-1004.3622)">
    <rect rx="4" y="1005.36" x="1" height="46" width="46" fill="#1890d0"/>
   </g>
  </clipPath>
  <clipPath id="3">
   <g transform="translate(0,-1004.3622)">
    <rect rx="4" y="1005.36" x="1" height="46" width="46" fill="#1890d0"/>
   </g>
  </clipPath>
 </defs>
 <g>
  <g transform="translate(0,-1004.3622)">
   <path d="m 5,1006.3622 c -2.216,0 -4,1.784 -4,4 l 0,37.25 c 0,2.216 1.784,4 4,4 l 38,0 c 2.216,0 4,-1.784 4,-4 l 0,-37.25 c 0,-2.216 -1.784,-4 -4,-4 l -38,0 z m -4,41.5 0,0.5 c 0,2.216 1.784,4 4,4 l 38,0 c 2.216,0 4,-1.784 4,-4 l 0,-0.5 c 0,2.216 -1.784,4 -4,4 l -38,0 c -2.216,0 -4,-1.784 -4,-4 z" opacity="0.02"/>
   <path d="m 1,1047.6122 0,0.25 c 0,2.216 1.784,4 4,4 l 38,0 c 2.216,0 4,-1.784 4,-4 l 0,-0.25 c 0,2.216 -1.784,4 -4,4 l -38,0 c -2.216,0 -4,-1.784 -4,-4 z" opacity="0.05"/>
   <rect width="46" height="46" x="1" y="1005.61" rx="4" opacity="0.1"/>
  </g>
 </g>
 <g>
  <g transform="translate(0,-1004.3622)">
   <rect rx="4" y="1005.36" x="1" height="46" width="46" fill="#efefef"/>
  </g>
 </g>
 <g>
  <rect transform="scale(1,-1)" width="46" height="46" x="1" y="-46.998" rx="4" opacity="0.1" fill="url(#1)"/>
 </g>
 <g>
  <g clip-path="url(#2)">
   <g opacity="0.1">
    <g>
     <path d="M 12 22.933594 C 11.992188 27.074219 14.140625 31.105469 17.988281 33.328125 C 18.074219 33.378906 18.167969 33.433594 18.257812 33.484375 C 20.070312 34.46875 22.03125 34.9375 23.96875 34.933594 L 23.96875 28.28125 C 23.066406 28.285156 22.148438 28.054688 21.308594 27.570312 C 18.765625 26.101562 17.894531 22.851562 19.363281 20.308594 L 13.878906 17.136719 C 13.78125 17.082031 13.695312 17.019531 13.625 16.953125 C 13.617188 16.964844 13.613281 16.972656 13.609375 16.984375 C 12.523438 18.859375 12.003906 20.910156 12 22.933594 Z M 12 22.933594 "/>
     <path d="M 29.921875 33.347656 C 33.511719 31.28125 35.929688 27.40625 35.929688 22.964844 C 35.929688 22.863281 35.933594 22.757812 35.933594 22.652344 C 35.878906 20.589844 35.300781 18.65625 34.332031 16.980469 L 28.570312 20.308594 C 29.023438 21.089844 29.28125 22 29.28125 22.96875 C 29.28125 25.902344 26.90625 28.285156 23.96875 28.285156 L 23.964844 34.621094 C 23.964844 34.730469 23.953125 34.832031 23.933594 34.929688 C 23.945312 34.929688 23.957031 34.929688 23.964844 34.929688 C 26.132812 34.929688 28.167969 34.355469 29.921875 33.347656 Z M 29.921875 33.347656 "/>
     <path d="M 23.597656 34.925781 C 23.71875 34.929688 23.84375 34.933594 23.96875 34.933594 L 23.964844 28.28125 C 23.21875 28.28125 22.464844 28.121094 21.75 27.792969 L 23.605469 34.839844 Z M 23.597656 34.925781 " fill-opacity="0.2" id="4"/>
     <path d="M 34.511719 17.308594 C 34.453125 17.199219 34.390625 17.085938 34.328125 16.980469 L 28.570312 20.308594 C 28.945312 20.957031 29.183594 21.6875 29.253906 22.46875 L 34.429688 17.339844 Z M 34.511719 17.308594 " fill-opacity="0.2" id="5"/>
     <path d="M 29.980469 12.617188 C 26.398438 10.539062 21.832031 10.386719 17.984375 12.605469 C 17.894531 12.65625 17.800781 12.707031 17.714844 12.761719 C 15.953125 13.835938 14.570312 15.304688 13.601562 16.984375 L 19.363281 20.308594 C 19.8125 19.523438 20.472656 18.847656 21.308594 18.363281 C 23.855469 16.894531 27.105469 17.761719 28.574219 20.304688 L 34.0625 17.140625 C 34.15625 17.085938 34.25 17.042969 34.34375 17.015625 C 34.339844 17.003906 34.335938 16.996094 34.328125 16.984375 C 33.246094 15.109375 31.730469 13.632812 29.980469 12.617188 Z M 29.980469 12.617188 "/>
     <path d="M 13.792969 16.664062 C 13.730469 16.769531 13.664062 16.878906 13.601562 16.984375 L 19.363281 20.308594 C 19.738281 19.660156 20.25 19.085938 20.894531 18.632812 L 13.863281 16.71875 Z M 13.792969 16.664062 " fill-opacity="0.2" id="6"/>
     <path d="M 29.417969 33.121094 L 34.121094 28.417969 L 36 35 Z M 29.417969 33.121094 "/>
    </g>
   </g>
  </g>
 </g>
 <g>
  <g clip-path="url(#3)">
   <g transform="translate(0,-1)">
    <g>
     <path d="M 12 22.933594 C 11.992188 27.074219 14.140625 31.105469 17.988281 33.328125 C 18.074219 33.378906 18.167969 33.433594 18.257812 33.484375 C 20.070312 34.46875 22.03125 34.9375 23.96875 34.933594 L 23.96875 28.28125 C 23.066406 28.285156 22.148438 28.054688 21.308594 27.570312 C 18.765625 26.101562 17.894531 22.851562 19.363281 20.308594 L 13.878906 17.136719 C 13.78125 17.082031 13.695312 17.019531 13.625 16.953125 C 13.617188 16.964844 13.613281 16.972656 13.609375 16.984375 C 12.523438 18.859375 12.003906 20.910156 12 22.933594 Z M 12 22.933594 " fill="#537ebf"/>
     <path d="M 29.921875 33.347656 C 33.511719 31.28125 35.929688 27.40625 35.929688 22.964844 C 35.929688 22.863281 35.933594 22.757812 35.933594 22.652344 C 35.878906 20.589844 35.300781 18.65625 34.332031 16.980469 L 28.570312 20.308594 C 29.023438 21.089844 29.28125 22 29.28125 22.96875 C 29.28125 25.902344 26.90625 28.285156 23.96875 28.285156 L 23.964844 34.621094 C 23.964844 34.730469 23.953125 34.832031 23.933594 34.929688 C 23.945312 34.929688 23.957031 34.929688 23.964844 34.929688 C 26.132812 34.929688 28.167969 34.355469 29.921875 33.347656 Z M 29.921875 33.347656 " fill="#fac63e"/>
     <use xlink:href="#4"/>
     <use xlink:href="#5"/>
     <path d="M 29.980469 12.617188 C 26.398438 10.539062 21.832031 10.386719 17.984375 12.605469 C 17.894531 12.65625 17.800781 12.707031 17.714844 12.761719 C 15.953125 13.835938 14.570312 15.304688 13.601562 16.984375 L 19.363281 20.308594 C 19.8125 19.523438 20.472656 18.847656 21.308594 18.363281 C 23.855469 16.894531 27.105469 17.761719 28.574219 20.304688 L 34.0625 17.140625 C 34.15625 17.085938 34.25 17.042969 34.34375 17.015625 C 34.339844 17.003906 34.335938 16.996094 34.328125 16.984375 C 33.246094 15.109375 31.730469 13.632812 29.980469 12.617188 Z M 29.980469 12.617188 " fill="#0f934c"/>
     <use xlink:href="#6"/>
     <path d="M 29.417969 33.121094 L 34.121094 28.417969 L 36 35 Z M 29.417969 33.121094 " fill="#fac63e"/>
    </g>
   </g>
  </g>
 </g>
 <g>
  <g transform="translate(0,-1004.3622)">
   <path d="m 1,1043.3622 0,4 c 0,2.216 1.784,4 4,4 l 38,0 c 2.216,0 4,-1.784 4,-4 l 0,-4 c 0,2.216 -1.784,4 -4,4 l -38,0 c -2.216,0 -4,-1.784 -4,-4 z" opacity="0.1"/>
  </g>
 </g>
</svg>

<svg viewBox="0 0 48 48" xmlns:xlink="http://www.w3.org/1999/xlink"><defs><linearGradient id="linearGradient3764" x1="1" x2="47" gradientUnits="userSpaceOnUse" gradientTransform="translate(-48.000001,0.00221467)"><stop stop-color="#e5e5e5" stop-opacity="1"/><stop offset="1" stop-color="#efefef" stop-opacity="1"/></linearGradient><clipPath id="clipPath-570779126"><g transform="translate(0,-1004.3622)"><rect rx="4" y="1005.36" x="1" height="46" width="46" fill="#1890d0"/></g></clipPath><clipPath id="clipPath-598327703"><g transform="translate(0,-1004.3622)"><rect rx="4" y="1005.36" x="1" height="46" width="46" fill="#1890d0"/></g></clipPath></defs><g><path d="m 1 43 l 0 0.25 c 0 2.216 1.784 4 4 4 l 38 0 c 2.216 0 4 -1.784 4 -4 l 0 -0.25 c 0 2.216 -1.784 4 -4 4 l -38 0 c -2.216 0 -4 -1.784 -4 -4 z m 0 0.5 l 0 0.5 c 0 2.216 1.784 4 4 4 l 38 0 c 2.216 0 4 -1.784 4 -4 l 0 -0.5 c 0 2.216 -1.784 4 -4 4 l -38 0 c -2.216 0 -4 -1.784 -4 -4 z" opacity="0.02"/><path d="m 1 43.25 l 0 0.25 c 0 2.216 1.784 4 4 4 l 38 0 c 2.216 0 4 -1.784 4 -4 l 0 -0.25 c 0 2.216 -1.784 4 -4 4 l -38 0 c -2.216 0 -4 -1.784 -4 -4 z" opacity="0.05"/><path d="m 1 43 l 0 0.25 c 0 2.216 1.784 4 4 4 l 38 0 c 2.216 0 4 -1.784 4 -4 l 0 -0.25 c 0 2.216 -1.784 4 -4 4 l -38 0 c -2.216 0 -4 -1.784 -4 -4 z" opacity="0.1"/></g><g><rect width="46" height="46" x="-47" y="1" rx="4" transform="matrix(0,-1,1,0,0,0)" fill="url(#linearGradient3764)" fill-opacity="1"/></g><g><g clip-path="url(#clipPath-570779126)"><g opacity="0.1"><!-- color: #efefef --><g><path d="m 12 22.934 c -0.008 4.141 2.141 8.172 5.988 10.395 c 0.086 0.051 0.18 0.105 0.27 0.156 c 1.813 0.984 3.773 1.453 5.711 1.449 l 0 -6.652 c -0.902 0.004 -1.82 -0.227 -2.66 -0.711 c -2.543 -1.469 -3.414 -4.719 -1.945 -7.262 l -5.484 -3.172 c -0.098 -0.055 -0.184 -0.117 -0.254 -0.184 c -0.008 0.012 -0.012 0.02 -0.016 0.031 c -1.086 1.875 -1.605 3.926 -1.609 5.949 m 0 0" fill="#000"/><path d="m 29.922 33.35 c 3.59 -2.066 6.01 -5.941 6.01 -10.383 c 0 -0.102 0.004 -0.207 0.004 -0.313 c -0.055 -2.063 -0.633 -3.996 -1.602 -5.672 l -5.762 3.328 c 0.453 0.781 0.711 1.691 0.711 2.66 c 0 2.934 -2.375 5.316 -5.313 5.316 l -0.004 6.336 c 0 0.109 -0.012 0.211 -0.031 0.309 c 0.012 0 0.023 0 0.031 0 c 2.168 0 4.203 -0.574 5.957 -1.582 m 0 0" fill="#000"/><path d="m 23.598 34.926 c 0.121 0.004 0.246 0.008 0.371 0.008 l -0.004 -6.652 c -0.746 0 -1.5 -0.16 -2.215 -0.488 l 1.855 7.05 m -0.008 0.086" fill-opacity="0.2" id="SVGCleanerId_0"/><path d="m 34.512 17.309 c -0.059 -0.109 -0.121 -0.223 -0.184 -0.328 l -5.758 3.328 c 0.375 0.648 0.613 1.379 0.684 2.16 l 5.176 -5.129 m 0.082 -0.031" fill-opacity="0.2" id="SVGCleanerId_1"/><path d="m 29.98 12.617 c -3.582 -2.078 -8.148 -2.23 -11.996 -0.012 c -0.09 0.051 -0.184 0.102 -0.27 0.156 c -1.762 1.074 -3.145 2.543 -4.113 4.223 l 5.762 3.324 c 0.449 -0.785 1.109 -1.461 1.945 -1.945 c 2.547 -1.469 5.797 -0.602 7.266 1.941 l 5.488 -3.164 c 0.094 -0.055 0.188 -0.098 0.281 -0.125 c -0.004 -0.012 -0.008 -0.02 -0.016 -0.031 c -1.082 -1.875 -2.598 -3.352 -4.348 -4.367 m 0 0" fill="#000"/><path d="m 13.793 16.664 c -0.063 0.105 -0.129 0.215 -0.191 0.32 l 5.762 3.324 c 0.375 -0.648 0.887 -1.223 1.531 -1.676 l -7.03 -1.914 m -0.07 -0.055" fill-opacity="0.2" id="SVGCleanerId_2"/><path d="m 29.418 33.12 l 4.703 -4.703 l 1.879 6.582 m -6.582 -1.879" fill="#000"/></g></g></g></g><g><g clip-path="url(#clipPath-598327703)"><g transform="translate(0,-1)"><!-- color: #efefef --><g><path d="m 12 22.934 c -0.008 4.141 2.141 8.172 5.988 10.395 c 0.086 0.051 0.18 0.105 0.27 0.156 c 1.813 0.984 3.773 1.453 5.711 1.449 l 0 -6.652 c -0.902 0.004 -1.82 -0.227 -2.66 -0.711 c -2.543 -1.469 -3.414 -4.719 -1.945 -7.262 l -5.484 -3.172 c -0.098 -0.055 -0.184 -0.117 -0.254 -0.184 c -0.008 0.012 -0.012 0.02 -0.016 0.031 c -1.086 1.875 -1.605 3.926 -1.609 5.949 m 0 0" fill="#537ebf"/><path d="m 29.922 33.35 c 3.59 -2.066 6.01 -5.941 6.01 -10.383 c 0 -0.102 0.004 -0.207 0.004 -0.313 c -0.055 -2.063 -0.633 -3.996 -1.602 -5.672 l -5.762 3.328 c 0.453 0.781 0.711 1.691 0.711 2.66 c 0 2.934 -2.375 5.316 -5.313 5.316 l -0.004 6.336 c 0 0.109 -0.012 0.211 -0.031 0.309 c 0.012 0 0.023 0 0.031 0 c 2.168 0 4.203 -0.574 5.957 -1.582 m 0 0" fill="#fac63e"/><use xlink:href="#SVGCleanerId_0"/><use xlink:href="#SVGCleanerId_1"/><path d="m 29.98 12.617 c -3.582 -2.078 -8.148 -2.23 -11.996 -0.012 c -0.09 0.051 -0.184 0.102 -0.27 0.156 c -1.762 1.074 -3.145 2.543 -4.113 4.223 l 5.762 3.324 c 0.449 -0.785 1.109 -1.461 1.945 -1.945 c 2.547 -1.469 5.797 -0.602 7.266 1.941 l 5.488 -3.164 c 0.094 -0.055 0.188 -0.098 0.281 -0.125 c -0.004 -0.012 -0.008 -0.02 -0.016 -0.031 c -1.082 -1.875 -2.598 -3.352 -4.348 -4.367 m 0 0" fill="#0f934c"/><use xlink:href="#SVGCleanerId_2"/><path d="m 29.418 33.12 l 4.703 -4.703 l 1.879 6.582 m -6.582 -1.879" fill="#fac63e"/></g></g></g></g><g><g transform="translate(0,-1004.3622)"><path d="m 1 1043.36 0 4 c 0 2.216 1.784 4 4 4 l 38 0 c 2.216 0 4 -1.784 4 -4 l 0 -4 c 0 2.216 -1.784 4 -4 4 l -38 0 c -2.216 0 -4 -1.784 -4 -4 z" opacity="0.1"/></g></g></svg>
